X: 18297
T: Humours Of Tulla, The
R: reel
M: 4/4
K: Dmajor
|:d2Ad BdAB|d2fd edBA|d2Ad BdAd|1 faba feef:|2 faba feeg||
fe (3efe fede|fe (3efe faba|fe (3efe fedB|ABde feed|
fe (3efe fede|fe (3efe faba|f3d efdB|ABde fedB:|

